static/img/clients/eflow.svg

<svg fill="none" height="45" viewBox="0 0 73 45" width="73" xmlns="http://www.w3.org/2000/svg"><path d="m70.3115 20.7188c-.1717.3161-.7841 1.246-2.0424 1.1725-.6311-.0368-1.1128-.2647-1.4712-.5624.6571-1.8304 1.0081-3.2455.3883-4.3335-.3249-.5734-.8775-.963-1.5608-1.1027-.758-.1507-1.5011.0515-2.035.5587-1.2024 1.1394-.8962 3.3815-.8215 3.8189.0747.4338.239.9373.5003 1.4482l-.3547.8969-.0112.033c-1.3517 3.6462-3.6257 3.7161-3.8871 3.7124h-.1418s-.5489-.0441-.8029-.3565c-.2464-.3051-.28-.9557-.0858-1.7827.0448-.1875.1232-.4411.2203-.7351l.7169-1.8966h-.0075c.2689-.6874.5601-1.4078.8252-2.0657.3884-.9593.7543-1.8672.997-2.5178.4966-1.3453.7393-2.3671.8476-2.8964-.8849-.2205-2.0835-.5219-2.9946-.7461-.0486.2757-.2427 1.224-.7506 2.606-.224.6065-.5825 1.4923-.9633 2.4296-.5863 1.4481-1.1837 2.9257-1.5646 4.0394l-.1531.4044-.0298.0882c-1.0642 3.4367-3.5249 3.4367-3.7788 3.4256l-.0075-.0147-.1083.0111c-.6273-.0699-.9596-.952-.87-2.3157.071-1.0732 1.1165-3.5763 1.9604-5.5906.4966-1.1909.967-2.3156 1.2807-3.2198.7356-2.1318 1.0642-3.3632 1.1762-3.8042-.8401-.2095-2.0425-.5109-2.9909-.7462-.0822.3272-.3883 1.485-1.109 3.5727-.28.816-.7319 1.8966-1.2098 3.0397-.4929 1.1799-.9932 2.3745-1.3928 3.4771-.5302 1.4225-1.6728 2.2826-2.737 2.2532-.168-.0037-.3323-.0294-.4966-.0919.6646-1.5144.997-2.9846.997-4.4217 0-1.5732-.4033-2.8266-1.2136-3.7528-.8103-.93-1.908-1.3931-3.3008-1.3931-1.2882 0-2.5727.5514-3.861 1.6504-1.2882 1.099-2.3449 2.4957-3.1738 4.1938-.0934.1911-.1793.3823-.2614.5697-.1494.3419-.2801.6837-.3958 1.0218 0 0-.0112.0368-.0299.0993-.9073 1.6246-1.8408 2.9331-2.7967 3.9108-.9858 1.0108-1.7998 1.5144-2.4421 1.5144-.1045 0-.1979-.0662-.28-.1985-.0822-.1323-.1232-.3271-.1232-.5918 0-.4741.1381-1.1578.4144-2.0436v-.0074c.0859-.2756.1867-.5697.2988-.8858.4779-1.3306 1.2658-3.3705 2.3636-6.1162 1.0156-2.481 1.852-4.6018 2.5055-6.3588.6459-1.73117 1.0791-3.2933 1.4301-4.67165-.9485-.23891-2.1135-.52929-2.92-.72777-.3137 1.20927-.8401 2.89637-1.3928 4.36661-.5601 1.49231-1.2397 3.12061-2.2366 5.60161-1.0493 2.5839-1.882 4.679-2.4495 6.3037-1.3853 3.3705-4.772 6.0794-9.4582 7.6378.3286-1.0696.6385-2.1869.9298-3.3594 2.8714-2.0915 5.1417-4.5578 6.934-7.5203 1.4525-2.4039 2.5839-5.1312 3.5585-8.57887 1.0305-3.65722 1.0492-6.175.0522-7.70038-.5078-.775549-1.277-1.279106-2.1731-1.4187784-4.4211-.6799856-7.7368 5.4509084-10.1341 18.7529284-.2837 1.5805-.5862 3.047-.9036 4.4107-2.2366 2.2384-5.10061 3.5175-7.91603 3.5175-2.28893 0-3.36431-.9446-3.38672-2.9698-.00373-.4338.05975-.941.19044-1.4813 2.09103 1.3747 4.37249 1.0843 4.74215 1.0218 3.62196-.5183 4.70856-3.4734 4.77946-4.9804.0822-1.4556-.336-2.7714-1.1836-3.7087-.7655-.8417-1.811-1.3232-3.02829-1.3931-1.65789-.0919-3.28964.5734-4.72349 1.9187-2.45322 2.3083-3.887072 6.2118-3.860934 8.6597.01867 1.7386.578767 3.2051 1.620544 4.249 1.1426 1.1431 2.77435 1.7239 4.84298 1.7239 2.27399 0 4.55549-.6286 6.63529-1.7864-.1755.5587-.351 1.099-.5302 1.6099-2.8827.7719-5.72423 1.9407-7.94221 3.275-3.2523 1.9554-4.9923342 4.1791-5.02220608 6.4286-.02613782 1.8047.70198808 2.878 1.31435608 3.4624 1.20235 1.1431 2.77809 1.2387 3.26724 1.2387h.10828c.49289-.0147 2.96478-.2463 5.79514-3.411 1.8334-2.0509 3.4465-4.8738 4.8243-8.4465 4.014-.9924 7.3895-2.7052 9.8652-4.94.0672.1654.1157.261.1157.261.1494.2867.3361.5513.5639.7939.6758.7278 1.5085 1.0917 2.5055 1.0917 1.3255 0 2.6847-.6212 4.0775-1.8636.3286-.294.6534-.6175.9745-.9703.2017.544.478 1.0255.8402 1.4408.8103.9299 1.908 1.3931 3.2971 1.3931 1.0156 0 2.0387-.3529 3.0656-1.0586 1.0268-.7057 1.9566-1.6467 2.7855-2.8155.6834.283 1.3405.4558 1.9604.4227.982-.0515 1.5981-.3749 1.9454-.544.1344 1.1872.5489 2.1502 1.2434 2.867 1.0119 1.0438 2.2516 1.1614 2.6138 1.1725.0411 0 .1008.0036.1792.0036.4556 0 1.4936-.0661 2.6623-.5991.4855-.2205 1.0306-.544 1.572-1.0034.0262.0367.0486.0735.0785.1103 1.109 1.3673 2.793 1.4812 3.1664 1.4886h.168c1.0082 0 4.5891-.3566 6.6092-5.201.6982.4006 1.5234.6726 2.4905.7278.112.0073.2203.0073.3249.0073 2.4345 0 3.9393-1.5584 4.5853-2.7309-.8439-.4779-2.1172-1.1909-2.6922-1.485zm-51.5998-1.3784c1.6877-9.35439 3.5472-13.34609 4.8093-15.04421.8178-1.10268 1.3555-1.25338 1.6542-1.25338.0709 0 .1269.00735.1717.0147.0112.00735.8738.87847-.3771 5.31124-1.094 3.88145-2.7333 8.19655-6.4411 11.96775.0635-.3271.1232-.6579.183-.9924zm-12.33338-1.9995c.81028-.7645 1.62802-1.1284 2.42335-1.0843.39581.022.69079.147.90363.3822.295.3272.4443.8822.407 1.5254v.0147c-.0075.0735-.0635.555-.34726 1.0365-.36219.6139-.9559.9741-1.80724 1.0917l-.05975.0073c-.23897.0368-1.81845.2279-3.04693-.9887.42941-.7461.9447-1.4408 1.5272-1.9885zm1.22101 21.833c-.9895.9851-2.10596 1.8011-3.01332 1.8011-.44061 0-.76546-.1103-1.0007-.2904-.04481-.0294-.08962-.0662-.13069-.1029-.12696-.1213-.22404-.2867-.28752-.4962-.04854-.1507-.07468-.3124-.07841-.4778-.00747-.0846-.00747-.1728-.00747-.2647.02614-1.9186 3.70411-4.4805 8.44628-6.1309-1.3741 2.9956-2.75943 4.8371-3.92817 5.9655zm32.86277-20.6201c-.5713.555-.8551 1.2461-.8551 2.0731 0 1.0512.4257 2.0693 1.277 3.0581-.5414.7865-1.1052 1.4224-1.6989 1.9076-.59.4852-1.1352.7278-1.6355.7278-.5004 0-.829-.1654-1.0567-.4999-.2278-.3345-.3436-.8711-.3436-1.6209 0-1.0513.2838-2.1907.8551-3.422.5713-1.2314 1.2621-2.2715 2.0687-3.1169.8102-.8491 1.557-1.2718 2.2403-1.2718.3734 0 .6684.0992.8887.3014.2166.2022.3697.5256.4518.9704-.8924.0404-1.6242.3381-2.1955.8931z" fill="#fff"/></svg>

<?xml version="1.0" encoding="UTF-8"?>
<svg xmlns="http://www.w3.org/2000/svg" width="73" height="45" viewBox="0 0 73 45" fill="none">
  <path d="M70.3115 20.7188C70.1398 21.0349 69.5274 21.9648 68.2691 21.8913C67.638 21.8545 67.1563 21.6266 66.7979 21.3289C67.455 19.4985 67.806 18.0834 67.1862 16.9954C66.8613 16.422 66.3087 16.0324 65.6254 15.8927C64.8674 15.742 64.1243 15.9442 63.5904 16.4514C62.388 17.5908 62.6942 19.8329 62.7689 20.2703C62.8436 20.7041 63.0079 21.2076 63.2692 21.7185L62.9145 22.6154L62.9033 22.6484C61.5516 26.2946 59.2776 26.3645 59.0162 26.3608H58.8744C58.8744 26.3608 58.3255 26.3167 58.0715 26.0043C57.8251 25.6992 57.7915 25.0486 57.9857 24.2216C58.0305 24.0341 58.1089 23.7805 58.206 23.4865L58.9229 21.5899H58.9154C59.1843 20.9025 59.4755 20.1821 59.7406 19.5242C60.129 18.5649 60.4949 17.657 60.7376 17.0064C61.2342 15.6611 61.4769 14.6393 61.5852 14.11C60.7003 13.8895 59.5017 13.5881 58.5906 13.3639C58.542 13.6396 58.3479 14.5879 57.84 15.9699C57.616 16.5764 57.2575 17.4622 56.8767 18.3995C56.2904 19.8476 55.693 21.3252 55.3121 22.4389L55.159 22.8433L55.1292 22.9315C54.065 26.3682 51.6043 26.3682 51.3504 26.3571L51.3429 26.3424L51.2346 26.3535C50.6073 26.2836 50.275 25.4015 50.3646 24.0378C50.4356 22.9646 51.4811 20.4615 52.325 18.4472C52.8216 17.2563 53.292 16.1316 53.6057 15.2274C54.3413 13.0956 54.6699 11.8642 54.7819 11.4232C53.9418 11.2137 52.7394 10.9123 51.791 10.677C51.7088 11.0042 51.4027 12.162 50.682 14.2497C50.402 15.0657 49.9501 16.1463 49.4722 17.2894C48.9793 18.4693 48.479 19.6639 48.0794 20.7665C47.5492 22.189 46.4066 23.0491 45.3424 23.0197C45.1744 23.016 45.0101 22.9903 44.8458 22.9278C45.5104 21.4134 45.8428 19.9432 45.8428 18.5061C45.8428 16.9329 45.4395 15.6795 44.6292 14.7533C43.8189 13.8233 42.7212 13.3602 41.3284 13.3602C40.0402 13.3602 38.7557 13.9116 37.4674 15.0106C36.1792 16.1096 35.1225 17.5063 34.2936 19.2044C34.2002 19.3955 34.1143 19.5867 34.0322 19.7741C33.8828 20.116 33.7521 20.4578 33.6364 20.7959C33.6364 20.7959 33.6252 20.8327 33.6065 20.8952C32.6992 22.5198 31.7657 23.8283 30.8098 24.806C29.824 25.8168 29.01 26.3204 28.3677 26.3204C28.2632 26.3204 28.1698 26.2542 28.0877 26.1219C28.0055 25.9896 27.9645 25.7948 27.9645 25.5301C27.9645 25.056 28.1026 24.3723 28.3789 23.4865V23.4791C28.4648 23.2035 28.5656 22.9094 28.6777 22.5933C29.1556 21.2627 29.9435 19.2228 31.0413 16.4771C32.0569 13.9961 32.8933 11.8753 33.5468 10.1183C34.1927 8.38713 34.6259 6.825 34.9769 5.44665C34.0284 5.20774 32.8634 4.91736 32.0569 4.71888C31.7432 5.92815 31.2168 7.61525 30.6641 9.08549C30.104 10.5778 29.4244 12.2061 28.4275 14.6871C27.3782 17.271 26.5455 19.3661 25.978 20.9908C24.5927 24.3613 21.206 27.0702 16.5198 28.6286C16.8484 27.559 17.1583 26.4417 17.4496 25.2692C20.321 23.1777 22.5913 20.7114 24.3836 17.7489C25.8361 15.345 26.9675 12.6177 27.9421 9.17003C28.9726 5.51281 28.9913 2.99503 27.9943 1.46965C27.4865 0.694101 26.7173 0.190544 25.8212 0.0508716C21.4001 -0.629114 18.0844 5.50178 15.6871 18.8038C15.4034 20.3843 15.1009 21.8508 14.7835 23.2145C12.5469 25.4529 9.68289 26.732 6.86747 26.732C4.57854 26.732 3.50316 25.7874 3.48075 23.7622C3.47702 23.3284 3.5405 22.8212 3.67119 22.2809C5.76222 23.6556 8.04368 23.3652 8.41334 23.3027C12.0353 22.7844 13.1219 19.8293 13.1928 18.3223C13.275 16.8667 12.8568 15.5509 12.0092 14.6136C11.2437 13.7719 10.1982 13.2904 8.98091 13.2205C7.32302 13.1286 5.69127 13.7939 4.25742 15.1392C1.8042 17.4475 0.370348 21.351 0.396486 23.7989C0.415156 25.5375 0.975253 27.004 2.01703 28.0479C3.15963 29.191 4.79138 29.7718 6.86001 29.7718C9.134 29.7718 11.4155 29.1432 13.4953 27.9854C13.3198 28.5441 13.1443 29.0844 12.9651 29.5953C10.0824 30.3672 7.24087 31.536 5.02289 32.8703C1.77059 34.8257 0.0305558 37.0494 0.00068392 39.2989C-0.0254539 41.1036 0.702672 42.1769 1.31504 42.7613C2.51739 43.9044 4.09313 44 4.58228 44C4.62709 44 4.66443 44 4.69056 44C5.18345 43.9853 7.65534 43.7537 10.4857 40.589C12.3191 38.5381 13.9322 35.7152 15.31 32.1425C19.324 31.1501 22.6995 29.4373 25.1752 27.2025C25.2424 27.3679 25.2909 27.4635 25.2909 27.4635C25.4403 27.7502 25.627 28.0148 25.8548 28.2574C26.5306 28.9852 27.3633 29.3491 28.3603 29.3491C29.6858 29.3491 31.045 28.7279 32.4378 27.4855C32.7664 27.1915 33.0912 26.868 33.4123 26.5152C33.614 27.0592 33.8903 27.5407 34.2525 27.956C35.0628 28.8859 36.1605 29.3491 37.5496 29.3491C38.5652 29.3491 39.5883 28.9962 40.6152 28.2905C41.642 27.5848 42.5718 26.6438 43.4007 25.475C44.0841 25.758 44.7412 25.9308 45.3611 25.8977C46.3431 25.8462 46.9592 25.5228 47.3065 25.3537C47.4409 26.5409 47.8554 27.5039 48.5499 28.2207C49.5618 29.2645 50.8015 29.3821 51.1637 29.3932C51.2048 29.3932 51.2645 29.3968 51.3429 29.3968C51.7985 29.3968 52.8365 29.3307 54.0052 28.7977C54.4907 28.5772 55.0358 28.2537 55.5772 27.7943C55.6034 27.831 55.6258 27.8678 55.6557 27.9046C56.7647 29.2719 58.4487 29.3858 58.8221 29.3932C58.8669 29.3932 58.9229 29.3932 58.9901 29.3932C59.9983 29.3932 63.5792 29.0366 65.5993 24.1922C66.2975 24.5928 67.1227 24.8648 68.0898 24.92C68.2018 24.9273 68.3101 24.9273 68.4147 24.9273C70.8492 24.9273 72.354 23.3689 73 22.1964C72.1561 21.7185 70.8828 21.0055 70.3078 20.7114L70.3115 20.7188ZM18.7117 19.3404C20.3994 9.98601 22.2589 5.99431 23.521 4.29619C24.3388 3.19351 24.8765 3.04281 25.1752 3.04281C25.2461 3.04281 25.3021 3.05016 25.3469 3.05751C25.3581 3.06486 26.2207 3.93598 24.9698 8.36875C23.8758 12.2502 22.2365 16.5653 18.5287 20.3365C18.5922 20.0094 18.6519 19.6786 18.7117 19.3441V19.3404ZM6.37832 17.3409C7.1886 16.5764 8.00634 16.2125 8.80167 16.2566C9.19748 16.2786 9.49246 16.4036 9.7053 16.6388C10.0003 16.966 10.1496 17.521 10.1123 18.1642V18.1789C10.1048 18.2524 10.0488 18.7339 9.76504 19.2154C9.40285 19.8293 8.80914 20.1895 7.9578 20.3071L7.89805 20.3144C7.65908 20.3512 6.0796 20.5423 4.85112 19.3257C5.28053 18.5796 5.79582 17.8849 6.37832 17.3372V17.3409ZM7.59933 39.1739C6.60983 40.159 5.49337 40.975 4.58601 40.975C4.1454 40.975 3.82055 40.8647 3.58531 40.6846C3.5405 40.6552 3.49569 40.6184 3.45462 40.5817C3.32766 40.4604 3.23058 40.295 3.1671 40.0855C3.11856 39.9348 3.09242 39.7731 3.08869 39.6077C3.08122 39.5231 3.08122 39.4349 3.08122 39.343C3.10736 37.4244 6.78533 34.8625 11.5275 33.2121C10.1534 36.2077 8.76807 38.0492 7.59933 39.1776V39.1739ZM40.4621 18.5538C39.8908 19.1088 39.607 19.7999 39.607 20.6269C39.607 21.6781 40.0327 22.6962 40.884 23.685C40.3426 24.4715 39.7788 25.1074 39.1851 25.5926C38.5951 26.0778 38.0499 26.3204 37.5496 26.3204C37.0492 26.3204 36.7206 26.155 36.4929 25.8205C36.2651 25.486 36.1493 24.9494 36.1493 24.1996C36.1493 23.1483 36.4331 22.0089 37.0044 20.7776C37.5757 19.5462 38.2665 18.5061 39.0731 17.6607C39.8833 16.8116 40.6301 16.3889 41.3134 16.3889C41.6868 16.3889 41.9818 16.4881 42.2021 16.6903C42.4187 16.8925 42.5718 17.2159 42.6539 17.6607C41.7615 17.7011 41.0297 17.9988 40.4584 18.5538H40.4621Z" fill="#FFF"></path>
</svg>
